;FLAVOR:Marlin
;TIME:5376
;Filament used: 6.59564m
;Layer height: 0.3
;MINX:57.279
;MINY:36.775
;MINZ:0.2
;MAXX:179.55
;MAXY:102.458
;MAXZ:20
;Generated with Cura_SteamEngine 4.8.0
M140 S40
M105
M190 S40
M104 S195
M105
M109 S195
M82 ;absolute extrusion mode
; -- START GCODE --
G21                     ;set units to millimetres
G90                     ;set to absolute positioning
M106 S0                 ;set fan speed to zero (turned off)
G28                     ;home all axis
G92 E0                  ;zero the extruded length
G1 Z1 F1000             ;move up slightly
G1 Y60.0 Z0 E9.0 F1000.0;intro line
G1 Y100.0 E21.5 F1000.0 ;continue line
G92 E0                  ;zero the extruded length again
; -- end of START GCODE --
G92 E0
G92 E0
G1 F2700 E-5
;LAYER_COUNT:67
;LAYER:0
M107
;MESH:Top.stl
G0 F3600 X68.389 Y51.938 Z0.2
;TYPE:WALL-INNER
G1 F2700 E0
G1 F1500 X72.418 Y49.267 E0.16078
G1 X72.438 Y49.254 E0.16157
G1 X73.678 Y48.432 E0.21105
G1 X73.678 Y45.138 E0.32061
G1 X72.623 Y44.575 E0.36038
G1 X68.389 Y47.381 E0.52933
G1 X64.156 Y44.575 E0.69824
G1 X63.101 Y45.138 E0.73801
G1 X63.101 Y48.432 E0.84757
G1 X64.34 Y49.253 E0.89701
G1 X64.36 Y49.266 E0.8978
G1 X68.389 Y51.938 E1.0586
G0 F3600 X64.135 Y50.001
G0 X63.466 Y53.235
G0 X68.389 Y56.938
G1 F1500 X72.418 Y54.267 E1.21938
G1 X72.438 Y54.254 E1.22017
G1 X73.678 Y53.432 E1.26965
G1 X73.678 Y50.138 E1.37921
G1 X72.645 Y49.586 E1.41816
G1 X72.623 Y49.575 E1.41896
G1 X68.593 Y52.245 E1.56708
G1 X68.389 Y52.381 E1.57524
G1 X68.185 Y52.246 E1.58337
G1 X64.156 Y49.575 E1.73189
G1 X64.134 Y49.586 E1.73268
G1 X63.101 Y50.138 E1.77164
G1 X63.101 Y53.432 E1.88119
G1 X64.34 Y54.253 E1.93063
G1 X64.36 Y54.266 E1.93142
G1 X68.389 Y56.938 E2.09222
G0 F3600 X64.135 Y55.001
G0 X63.466 Y58.235
G0 X68.389 Y61.938
G1 F1500 X72.418 Y59.267 E2.253
G1 X72.438 Y59.254 E2.25379
G1 X73.678 Y58.432 E2.30327
G1 X73.678 Y55.138 E2.41283
G1 X72.645 Y54.586 E2.45179
G1 X72.623 Y54.575 E2.45258
G1 X68.593 Y57.245 E2.6007
G1 X68.389 Y57.381 E2.60886
G1 X68.185 Y57.246 E2.61699
G1 X64.156 Y54.575 E2.76551
G1 X64.134 Y54.586 E2.7663
G1 X63.101 Y55.138 E2.80526
G1 X63.101 Y58.432 E2.91482
G1 X64.34 Y59.253 E2.96425
G1 X64.36 Y59.266 E2.96504
G1 X68.389 Y61.938 E3.12584
G0 F3600 X64.135 Y60.001
G0 X63.466 Y63.235
G0 X68.389 Y66.938
G1 F1500 X72.418 Y64.267 E3.28662
G1 X72.438 Y64.254 E3.28741
G1 X73.678 Y63.432 E3.33689
G1 X73.678 Y60.138 E3.44645
G1 X72.645 Y59.586 E3.48541
G1 X72.623 Y59.575 E3.4862
G1 X68.593 Y62.245 E3.63432
G1 X68.389 Y62.381 E3.64248
G1 X68.185 Y62.246 E3.65062
G1 X64.156 Y59.575 E3.79913
G1 X64.134 Y59.586 E3.79992
G1 X63.101 Y60.138 E3.83888
G1 X63.101 Y63.432 E3.94844
G1 X64.34 Y64.253 E3.99787
G1 X64.36 Y64.266 E3.99867
G1 X68.389 Y66.938 E4.15946
G0 F3600 X64.135 Y65.001
G0 X63.466 Y68.235
G0 X68.389 Y71.938
G1 F1500 X72.418 Y69.267 E4.32024
G1 X72.438 Y69.254 E4.32103
G1 X73.678 Y68.432 E4.37051
G1 X73.678 Y65.138 E4.48007
G1 X72.645 Y64.586 E4.51903
G1 X72.623 Y64.575 E4.51982
G1 X68.593 Y67.245 E4.66795
G1 X68.389 Y67.381 E4.6761
G1 X68.185 Y67.246 E4.68424
G1 X64.156 Y64.575 E4.83275
G1 X64.134 Y64.586 E4.83354
G1 X63.101 Y65.138 E4.8725
G1 X63.101 Y68.432 E4.98206
G1 X64.34 Y69.253 E5.03149
G1 X64.36 Y69.266 E5.03229
G1 X68.389 Y71.938 E5.19308
G0 F3600 X64.135 Y70.001
G0 X63.466 Y73.235
G0 X68.389 Y76.938
G1 F1500 X72.418 Y74.267 E5.35386
G1 X72.438 Y74.254 E5.35465
G1 X73.678 Y73.432 E5.40414
G1 X73.678 Y70.138 E5.5137
G1 X72.645 Y69.586 E5.55265
G1 X72.623 Y69.575 E5.55344
G1 X68.593 Y72.245 E5.70157
G1 X68.389 Y72.381 E5.70972
G1 X68.185 Y72.246 E5.71786
G1 X64.156 Y69.575 E5.86637
G1 X64.134 Y69.586 E5.86717
G1 X63.101 Y70.138 E5.90612
G1 X63.101 Y73.432 E6.01568
G1 X64.34 Y74.253 E6.06512
G1 X64.36 Y74.266 E6.06591
G1 X68.389 Y76.938 E6.22671
G0 F3600 X64.135 Y75.001
G0 X63.466 Y78.235
G0 X68.389 Y81.938
G1 F1500 X72.418 Y79.267 E6.38748
G1 X72.438 Y79.254 E6.38828
G1 X73.678 Y78.432 E6.43776
G1 X73.678 Y75.138 E6.54732
G1 X72.645 Y74.586 E6.58627
G1 X72.623 Y74.575 E6.58706
G1 X68.593 Y77.245 E6.73519
G1 X68.389 Y77.381 E6.74334
G1 X68.185 Y77.246 E6.75148
G1 X64.156 Y74.575 E6.9
G1 X64.134 Y74.586 E6.90079
G1 X63.101 Y75.138 E6.93974
G1 X63.101 Y78.432 E7.0493
G1 X64.34 Y79.253 E7.09874
G1 X64.36 Y79.266 E7.09953
G1 X68.389 Y81.938 E7.26033
G0 F3600 X64.135 Y80.001
G0 X63.466 Y83.235
G0 X68.389 Y86.938
G1 F1500 X72.418 Y84.267 E7.4211
G1 X72.438 Y84.254 E7.4219
G1 X73.678 Y83.432 E7.47138
G1 X73.678 Y80.138 E7.58094
G1 X72.645 Y79.586 E7.61989
G1 X72.623 Y79.575 E7.62068
G1 X68.593 Y82.245 E7.76881
G1 X68.389 Y82.381 E7.77697
G1 X68.185 Y82.246 E7.7851
G1 X64.156 Y79.575 E7.93362
G1 X64.134 Y79.586 E7.93441
G1 X63.101 Y80.138 E7.97336
G1 X63.101 Y83.432 E8.08292
G1 X64.34 Y84.253 E8.13236
G1 X64.36 Y84.266 E8.13315
G1 X68.389 Y86.938 E8.29395
G0 F3600 X64.135 Y85.001
G0 X63.466 Y88.235
G0 X68.389 Y91.938
G1 F1500 X73.678 Y88.432 E8.505
G1 X73.678 Y85.138 E8.61456
G1 X72.645 Y84.586 E8.65352
G1 X72.623 Y84.575 E8.65431
G1 X68.593 Y87.245 E8.80243
G1 X68.389 Y87.381 E8.81059
G1 X68.185 Y87.246 E8.81872
G1 X64.156 Y84.575 E8.96724
G1 X64.134 Y84.586 E8.96803
G1 X63.101 Y85.138 E9.00699
G1 X63.101 Y88.432 E9.11654
G1 X68.389 Y91.938 E9.32757
G0 F3600 X80.389 Y91.938
G1 F1500 X85.678 Y88.432 E9.53862
G1 X85.678 Y85.138 E9.64818
G1 X84.645 Y84.586 E9.68714
G1 X84.623 Y84.575 E9.68795
G1 X80.593 Y87.245 E9.84874
G1 X80.389 Y87.381 E9.8569
G1 X80.185 Y87.246 E9.86503
G1 X76.156 Y84.575 E10.02581
G1 X76.134 Y84.586 E10.02663
G1 X75.101 Y85.138 E10.06558
G1 X75.101 Y88.432 E10.17514
G1 X80.389 Y91.938 E10.38617
G0 F3600 X75.466 Y88.235
G0 X75.467 Y85.358
G0 X80.389 Y86.938
G1 F1500 X84.418 Y84.267 E10.53428
G1 X84.438 Y84.254 E10.53505
G1 X85.678 Y83.432 E10.58453
G1 X85.678 Y80.138 E10.69409
G1 X84.645 Y79.586 E10.73304
G1 X84.623 Y79.575 E10.73386
G1 X80.593 Y82.245 E10.89465
G1 X80.389 Y82.381 E10.9028
G1 X80.185 Y82.246 E10.91094
G1 X76.156 Y79.575 E11.07172
G1 X76.134 Y79.586 E11.07254
G1 X75.101 Y80.138 E11.11149
G1 X75.101 Y83.432 E11.22105
G1 X76.34 Y84.253 E11.27049
G1 X76.36 Y84.266 E11.27125
G1 X80.389 Y86.938 E11.41979
G0 F3600 X75.466 Y83.235
G0 X75.467 Y80.358
G0 X80.389 Y81.938
G1 F1500 X84.418 Y79.267 E11.5679
G1 X84.438 Y79.254 E11.56867
G1 X85.678 Y78.432 E11.61815
G1 X85.678 Y75.138 E11.72771
G1 X84.645 Y74.586 E11.76666
G1 X84.623 Y74.575 E11.76748
G1 X80.593 Y77.245 E11.92827
G1 X80.389 Y77.381 E11.93642
G1 X80.185 Y77.246 E11.94456
G1 X76.156 Y74.575 E12.10534
G1 X76.134 Y74.586 E12.10616
G1 X75.101 Y75.138 E12.14511
G1 X75.101 Y78.432 E12.25467
G1 X76.34 Y79.253 E12.30411
G1 X76.36 Y79.266 E12.30487
G1 X80.389 Y81.938 E12.45341
G0 F3600 X75.466 Y78.235
G0 X75.467 Y75.358
G0 X80.389 Y76.938
G1 F1500 X84.418 Y74.267 E12.60152
G1 X84.438 Y74.254 E12.60229
G1 X85.678 Y73.432 E12.65177
G1 X85.678 Y70.138 E12.76133
G1 X84.645 Y69.586 E12.80028
G1 X84.623 Y69.575 E12.8011
G1 X80.593 Y72.245 E12.96189
G1 X80.389 Y72.381 E12.97004
G1 X80.185 Y72.246 E12.97818
G1 X76.156 Y69.575 E13.13896
G1 X76.134 Y69.586 E13.13978
G1 X75.101 Y70.138 E13.17873
G1 X75.101 Y73.432 E13.28829
G1 X76.34 Y74.253 E13.33773
G1 X76.36 Y74.266 E13.33849
G1 X80.389 Y76.938 E13.48703
G0 F3600 X75.466 Y73.235
G0 X75.467 Y70.358
G0 X80.389 Y71.938
G1 F1500 X84.418 Y69.267 E13.63514
G1 X84.438 Y69.254 E13.63591
G1 X85.678 Y68.432 E13.68539
G1 X85.678 Y65.138 E13.79495
G1 X84.645 Y64.586 E13.8339
G1 X84.623 Y64.575 E13.83472
G1 X80.593 Y67.245 E13.99551
G1 X80.389 Y67.381 E14.00366
G1 X80.185 Y67.246 E14.0118
G1 X76.156 Y64.575 E14.17258
G1 X76.134 Y64.586 E14.1734
G1 X75.101 Y65.138 E14.21235
G1 X75.101 Y68.432 E14.32191
G1 X76.34 Y69.253 E14.37135
G1 X76.36 Y69.266 E14.37211
G1 X80.389 Y71.938 E14.52065
G0 F3600 X75.466 Y68.235
G0 X75.467 Y65.358
G0 X80.389 Y66.938
G1 F1500 X84.418 Y64.267 E14.66876
G1 X84.438 Y64.254 E14.66953
G1 X85.678 Y63.432 E14.71901
G1 X85.678 Y60.138 E14.82857
G1 X84.645 Y59.586 E14.86752
G1 X84.623 Y59.575 E14.86834
G1 X80.593 Y62.245 E15.02913
G1 X80.389 Y62.381 E15.03728
G1 X80.185 Y62.246 E15.04542
G1 X76.156 Y59.575 E15.2062
G1 X76.134 Y59.586 E15.20702
G1 X75.101 Y60.138 E15.24597
G1 X75.101 Y63.432 E15.35553
G1 X76.34 Y64.253 E15.40497
G1 X76.36 Y64.266 E15.40573
G1 X80.389 Y66.938 E15.55427
G0 F3600 X75.466 Y63.235
G0 X75.467 Y60.358
G0 X80.389 Y61.938
G1 F1500 X84.418 Y59.267 E15.70238
G1 X84.438 Y59.254 E15.70315
G1 X85.678 Y58.432 E15.75263
G1 X85.678 Y55.138 E15.86219
G1 X84.645 Y54.586 E15.90114
G1 X84.623 Y54.575 E15.90196
G1 X80.593 Y57.245 E16.06275
G1 X80.389 Y57.381 E16.0709
G1 X80.185 Y57.246 E16.07904
G1 X76.156 Y54.575 E16.23982
G1 X76.134 Y54.586 E16.24064
G1 X75.101 Y55.138 E16.27959
G1 X75.101 Y58.432 E16.38915
G1 X76.34 Y59.253 E16.43859
G1 X76.36 Y59.266 E16.43935
G1 X80.389 Y61.938 E16.58789
G0 F3600 X75.466 Y58.235
G0 X75.467 Y55.358
G0 X80.389 Y56.938
G1 F1500 X84.418 Y54.267 E16.736
G1 X84.438 Y54.254 E16.73677
G1 X85.678 Y53.432 E16.78625
G1 X85.678 Y50.138 E16.89581
G1 X84.645 Y49.586 E16.93476
G1 X84.623 Y49.575 E16.93558
G1 X80.593 Y52.245 E17.09637
G1 X80.389 Y52.381 E17.10452
G1 X80.185 Y52.246 E17.11266
G1 X76.156 Y49.575 E17.27344
G1 X76.134 Y49.586 E17.27426
G1 X75.101 Y50.138 E17.31321
G1 X75.101 Y53.432 E17.42277
G1 X76.34 Y54.253 E17.47221
G1 X76.36 Y54.266 E17.47297
G1 X80.389 Y56.938 E17.62151
G0 F3600 X75.466 Y53.235
G0 X75.467 Y50.358
G0 X80.389 Y51.938
G1 F1500 X84.418 Y49.267 E17.76962
G1 X84.438 Y49.254 E17.77039
G1 X85.678 Y48.432 E17.81987
G1 X85.678 Y45.138 E17.92943
G1 X84.623 Y44.575 E17.9692
G1 X80.389 Y47.381 E18.13814
G1 X76.156 Y44.575 E18.30706
G1 X75.101 Y45.138 E18.34683
G1 X75.101 Y48.432 E18.45639
G1 X76.34 Y49.253 E18.50583
G1 X76.36 Y49.266 E18.50659
G1 X80.389 Y51.938 E18.65513
G0 F3600 X84.644 Y50.001
G0 X88.135 Y50.001
G0 X92.389 Y51.938
G1 F1500 X96.418 Y49.267 E18.81591
G1 X96.438 Y49.254 E18.8167
G1 X97.678 Y48.432 E18.86618
G1 X97.678 Y45.138 E18.97574
G1 X96.623 Y44.575 E19.01551
G1 X92.389 Y47.381 E19.18445
G1 X88.156 Y44.575 E19.35337
G1 X87.101 Y45.138 E19.39314
G1 X87.101 Y48.432 E19.5027
G1 X88.34 Y49.253 E19.55214
G1 X88.36 Y49.266 E19.55293
G1 X92.389 Y51.938 E19.71373
G0 F3600 X88.135 Y50.001
G0 X87.466 Y53.235
G0 X92.389 Y56.938
G1 F1500 X96.418 Y54.267 E19.8745
G1 X96.438 Y54.254 E19.8753
G1 X97.678 Y53.432 E19.92478
G1 X97.678 Y50.138 E20.03434
G1 X96.645 Y49.586 E20.07329
G1 X96.623 Y49.575 E20.07408
G1 X92.593 Y52.245 E20.22221
G1 X92.389 Y52.381 E20.23036
G1 X92.185 Y52.246 E20.2385
G1 X88.156 Y49.575 E20.38702
G1 X88.134 Y49.586 E20.38781
G1 X87.101 Y50.138 E20.42676
G1 X87.101 Y53.432 E20.53632
G1 X88.34 Y54.253 E20.58576
G1 X88.36 Y54.266 E20.58655
G1 X92.389 Y56.938 E20.74735
G0 F3600 X88.135 Y55.001
G0 X87.466 Y58.235
G0 X92.389 Y61.938
G1 F1500 X96.418 Y59.267 E20.90813
G1 X96.438 Y59.254 E20.90892
G1 X97.678 Y58.432 E20.9584
G1 X97.678 Y55.138 E21.06796
G1 X96.645 Y54.586 E21.10691
G1 X96.623 Y54.575 E21.1077
G1 X92.593 Y57.245 E21.25583
G1 X92.389 Y57.381 E21.26399
G1 X92.185 Y57.246 E21.27212
G1 X88.156 Y54.575 E21.42064
G1 X88.134 Y54.586 E21.42143
G1 X87.101 Y55.138 E21.46038
G1 X87.101 Y58.432 E21.56994
G1 X88.34 Y59.253 E21.61938
G1 X88.36 Y59.266 E21.62017
G1 X92.389 Y61.938 E21.78097
G0 F3600 X88.135 Y60.001
G0 X87.466 Y63.235
G0 X92.389 Y66.938
G1 F1500 X96.418 Y64.267 E21.94175
G1 X96.438 Y64.254 E21.94254
G1 X97.678 Y63.432 E21.99202
G1 X97.678 Y60.138 E22.10158
G1 X96.645 Y59.586 E22.14054
G1 X96.623 Y59.575 E22.14133
G1 X92.593 Y62.245 E22.28945
G1 X92.389 Y62.381 E22.29761
G1 X92.185 Y62.246 E22.30574
G1 X88.156 Y59.575 E22.45426
G1 X88.134 Y59.586 E22.45505
G1 X87.101 Y60.138 E22.49401
G1 X87.101 Y63.432 E22.60357
G1 X88.34 Y64.253 E22.653
G1 X88.36 Y64.266 E22.65379
G1 X92.389 Y66.938 E22.81459
G0 F3600 X88.135 Y65.001
G0 X87.466 Y68.235
G0 X92.389 Y71.938
G1 F1500 X96.418 Y69.267 E22.97537
G1 X96.438 Y69.254 E22.97616
G1 X97.678 Y68.432 E23.02564
G1 X97.678 Y65.138 E23.1352
G1 X96.645 Y64.586 E23.17416
G1 X96.623 Y64.575 E23.17495
G1 X92.593 Y67.245 E23.32307
G1 X92.389 Y67.381 E23.33123
G1 X92.185 Y67.246 E23.33936
G1 X88.156 Y64.575 E23.48788
G1 X88.134 Y64.586 E23.48867
G1 X87.101 Y65.138 E23.52763
G1 X87.101 Y68.432 E23.63719
G1 X88.34 Y69.253 E23.68662
G1 X88.36 Y69.266 E23.68742
G1 X92.389 Y71.938 E23.84821
G0 F3600 X88.135 Y70.001
G0 X87.466 Y73.235
G0 X92.389 Y76.938
G1 F1500 X96.418 Y74.267 E24.00899
G1 X96.438 Y74.254 E24.00978
G1 X97.678 Y73.432 E24.05926
G1 X97.678 Y70.138 E24.16882
G1 X96.645 Y69.586 E24.20778
G1 X96.623 Y69.575 E24.20857
G1 X92.593 Y72.245 E24.3567
G1 X92.389 Y72.381 E24.36485
G1 X92.185 Y72.246 E24.37299
G1 X88.156 Y69.575 E24.5215
G1 X88.134 Y69.586 E24.52229
G1 X87.101 Y70.138 E24.56125
G1 X87.101 Y73.432 E24.67081
G1 X88.34 Y74.253 E24.72024
G1 X88.36 Y74.266 E24.72104
G1 X92.389 Y76.938 E24.88183
G0 F3600 X88.135 Y75.001
G0 X87.466 Y78.235
G0 X92.389 Y81.938
G1 F1500 X96.418 Y79.267 E25.04261
G1 X96.438 Y79.254 E25.0434
G1 X97.678 Y78.432 E25.09289
G1 X97.678 Y75.138 E25.20244
G1 X96.645 Y74.586 E25.2414
G1 X96.623 Y74.575 E25.24219
G1 X92.593 Y77.245 E25.39032
G1 X92.389 Y77.381 E25.39847
G1 X92.185 Y77.246 E25.40661
G1 X88.156 Y74.575 E25.55512
G1 X88.134 Y74.586 E25.55592
G1 X87.101 Y75.138 E25.59487
G1 X87.101 Y78.432 E25.70443
G1 X88.34 Y79.253 E25.75386
G1 X88.36 Y79.266 E25.75466
G1 X92.389 Y81.938 E25.91545
G0 F3600 X88.135 Y80.001
G0 X87.466 Y83.235
G0 X92.389 Y86.938
G1 F1500 X96.418 Y84.267 E26.07623
G1 X96.438 Y84.254 E26.07703
G1 X97.678 Y83.432 E26.12651
G1 X97.678 Y80.138 E26.23607
G1 X96.645 Y79.586 E26.27502
G1 X96.623 Y79.575 E26.27581
G1 X92.593 Y82.245 E26.42394
G1 X92.389 Y82.381 E26.43209
G1 X92.185 Y82.246 E26.44023
G1 X88.156 Y79.575 E26.58875
G1 X88.134 Y79.586 E26.58954
G1 X87.101 Y80.138 E26.62849
G1 X87.101 Y83.432 E26.73805
G1 X88.34 Y84.253 E26.78749
G1 X88.36 Y84.266 E26.78828
G1 X92.389 Y86.938 E26.94908
G0 F3600 X88.135 Y85.001
G0 X87.466 Y88.235
G0 X92.389 Y91.938
G1 F1500 X97.678 Y88.432 E27.16013
G1 X97.678 Y85.138 E27.26969
G1 X96.645 Y84.586 E27.30864
G1 X96.623 Y84.575 E27.30943
G1 X92.593 Y87.245 E27.45756
G1 X92.389 Y87.381 E27.46571
G1 X92.185 Y87.246 E27.47385
G1 X88.156 Y84.575 E27.62237
G1 X88.134 Y84.586 E27.62316
G1 X87.101 Y85.138 E27.66211
G1 X87.101 Y88.432 E27.77167
G1 X92.389 Y91.938 E27.9827
G0 F3600 X101.079 Y100.575
G1 F1500 X58.079 Y100.575 E29.41288
G1 X58.079 Y37.575 E31.50827
G1 X101.079 Y37.575 E32.93846
G1 X101.079 Y100.575 E35.03385
G0 F3600 X101.479 Y100.975
G1 F1500 X57.679 Y100.975 E36.49064
G1 X57.679 Y37.175 E38.61264
G1 X101.479 Y37.175 E40.06943
G1 X101.479 Y100.975 E42.19143
G0 F3600 X101.409 Y100.905
G0 X92.389 Y91.558
G0 X92.389 Y91.458
G1 F1500 X97.278 Y88.217 E42.38652
G1 X97.278 Y85.378 E42.48095
G1 X96.645 Y85.04 E42.50481
G1 X92.389 Y87.861 E42.67464
G1 X88.134 Y85.04 E42.84444
G1 X87.501 Y85.378 E42.86831
G1 X87.501 Y88.217 E42.96273
G1 X92.389 Y91.458 E43.1578
G0 F3600 X92.389 Y91.558
G0 X87.466 Y88.235
G0 X87.467 Y85.358
G0 X92.389 Y86.558
G0 X92.389 Y86.458
G1 F1500 X97.278 Y83.217 E43.35289
G1 X97.278 Y80.378 E43.44732
G1 X96.645 Y80.04 E43.47119
G1 X92.389 Y82.861 E43.64101
G1 X88.134 Y80.04 E43.81081
G1 X87.501 Y80.378 E43.83468
G1 X87.501 Y83.217 E43.92911
G1 X92.389 Y86.458 E44.12417
G0 F3600 X92.389 Y86.558
G0 X87.466 Y83.235
G0 X87.467 Y80.358
G0 X92.389 Y81.558
G0 X92.389 Y81.458
G1 F1500 X97.278 Y78.217 E44.31927
G1 X97.278 Y75.378 E44.41369
G1 X96.645 Y75.04 E44.43756
G1 X92.389 Y77.861 E44.60739
G1 X88.134 Y75.04 E44.77718
G1 X87.501 Y75.378 E44.80105
G1 X87.501 Y78.217 E44.89548
G1 X92.389 Y81.458 E45.09054
G0 F3600 X92.389 Y81.558
G0 X87.466 Y78.235
G0 X87.467 Y75.358
G0 X92.389 Y76.558
G0 X92.389 Y76.458
G1 F1500 X97.278 Y73.217 E45.28564
G1 X97.278 Y70.378 E45.38006
G1 X96.645 Y70.04 E45.40393
G1 X92.389 Y72.861 E45.57376
G1 X88.134 Y70.04 E45.74356
G1 X87.501 Y70.378 E45.76742
G1 X87.501 Y73.217 E45.86185
G1 X92.389 Y76.458 E46.05692
G0 F3600 X92.389 Y76.558
G0 X87.466 Y73.235
G0 X87.467 Y70.358
G0 X92.389 Y71.558
G0 X92.389 Y71.458
G1 F1500 X97.278 Y68.217 E46.25201
G1 X97.278 Y65.378 E46.34644
